client/public/img/misc/skull_icon.svg

<?xml version="1.0" encoding="UTF-8" standalone="no"?>
<!-- Created with Inkscape (http://www.inkscape.org/) -->

<svg
   width="14.35"
   height="16"
   viewBox="0 0 3.796771 4.2333333"
   version="1.1"
   id="svg12393"
   xmlns="http://www.w3.org/2000/svg"
   xmlns:svg="http://www.w3.org/2000/svg">
  <defs
     id="defs7" />
  <g
     id="layer1">
    <g
       id="g2113"
       transform="translate(-110.55112,-50)">
      <path
         id="path6045"
         style="fill-opacity:1;stroke:none;stroke-width:0;stroke-linecap:round;stroke-miterlimit:4;stroke-dasharray:none;stroke-opacity:1;fill:#ffffff"
         d="M 7.1757812 0 A 7.1751254 6.9831753 0 0 0 0 6.9824219 A 7.1751254 6.9831753 0 0 0 3.1953125 12.791016 L 3.1953125 16 L 5.03125 16 L 5.03125 13.646484 A 7.1751254 6.9831753 0 0 0 6.2558594 13.904297 L 6.2558594 16 L 8.09375 16 L 8.09375 13.908203 A 7.1751254 6.9831753 0 0 0 9.3183594 13.648438 L 9.3183594 16 L 11.154297 16 L 11.154297 12.792969 A 7.1751254 6.9831753 0 0 0 14.349609 6.9824219 A 7.1751254 6.9831753 0 0 0 7.1757812 0 z M 3.3476562 5.1210938 A 1.9133668 1.8621801 0 0 1 5.2617188 6.9824219 A 1.9133668 1.8621801 0 0 1 3.3476562 8.8457031 A 1.9133668 1.8621801 0 0 1 1.4355469 6.9824219 A 1.9133668 1.8621801 0 0 1 3.3476562 5.1210938 z M 11.001953 5.1210938 A 1.9133668 1.8621801 0 0 1 12.916016 6.9824219 A 1.9133668 1.8621801 0 0 1 11.001953 8.8457031 A 1.9133668 1.8621801 0 0 1 9.0878906 6.9824219 A 1.9133668 1.8621801 0 0 1 11.001953 5.1210938 z M 7.1757812 8.4726562 C 7.4210726 8.4726562 7.6654406 8.8874976 8.15625 9.7148438 C 9.1378311 11.369536 9.1389812 11.369141 7.1757812 11.369141 C 5.2126191 11.369141 5.2117783 11.369536 6.1933594 9.7148438 C 6.6841688 8.8874976 6.9304143 8.4726562 7.1757812 8.4726562 z "
         transform="matrix(0.26458333,0,0,0.26458333,110.55112,50)" />
    </g>
  </g>
</svg>

<svg xmlns="http://www.w3.org/2000/svg" width="14.35" height="16" viewBox="0 0 3.797 4.233"><path d="M7.176 0A7.175 6.983 0 0 0 0 6.982a7.175 6.983 0 0 0 3.195 5.809V16h1.836v-2.354a7.175 6.983 0 0 0 1.225.258V16h1.838v-2.092a7.175 6.983 0 0 0 1.224-.26V16h1.836v-3.207a7.175 6.983 0 0 0 3.196-5.81A7.175 6.983 0 0 0 7.176 0M3.348 5.121a1.913 1.862 0 0 1 1.914 1.861 1.913 1.862 0 0 1-1.914 1.864 1.913 1.862 0 0 1-1.912-1.864 1.913 1.862 0 0 1 1.912-1.86m7.654 0a1.913 1.862 0 0 1 1.914 1.861 1.913 1.862 0 0 1-1.914 1.864 1.913 1.862 0 0 1-1.914-1.864 1.913 1.862 0 0 1 1.914-1.86m-3.826 3.35c.245 0 .49.414.98 1.242.982 1.655.983 1.654-.98 1.654s-1.964 0-.983-1.654c.491-.828.737-1.242.983-1.242" style="fill-opacity:1;stroke:none;stroke-width:0;stroke-linecap:round;stroke-miterlimit:4;stroke-dasharray:none;stroke-opacity:1;fill:#fff" transform="scale(.26458)"/></svg>
